lib/brands/icons/aws-cloudwatch.svg

<svg xmlns="http://www.w3.org/2000/svg" fill="none" aria-hidden="true" viewBox="0 0 48 48"><g id="aws-cloudwatch-Icon"><g id="Group"><path id="Vector" fill="#B7CA9D" d="M39.9096 30.7724L24.0053 28.436L8.09033 30.7754L24.0012 36.6718L39.9096 30.7724Z"/><path id="Vector_2" fill="#4B612C" d="M11.2749 30.5L13.9634 31.3403L14.2084 31.0621V12.25L13.9634 11.9287L11.2749 12.9571V30.5Z"/><path id="Vector_3" fill="#759C3E" d="M23.4819 29.6684L13.9634 31.3403V11.9292L23.4819 14.0698V29.6684Z"/><path id="Vector_4" fill="#4B612C" d="M19.2378 32.958L15.5278 31.8144V7.85545L19.2378 6.00049L19.5624 6.3541V32.5625L19.2378 32.958Z"/><path id="Vector_5" fill="#759C3E" d="M31.9507 29.9756L19.2378 32.958V6L31.9507 10.9551V29.9756Z"/><path id="Vector_6" fill="#4B612C" d="M23.9956 36.4165L8.09033 30.7754V34.0473L23.9956 42V36.4165Z"/><path id="Vector_7" fill="#759C3E" d="M39.9096 34.0434L23.9956 42V36.4165L39.9096 30.7724V34.0434Z"/><path id="Vector_8" fill="#B7CA9D" d="M35.4399 25.3516H31.5835L20.5903 26.1006L24 26.7291L35.4399 25.3516Z"/><path id="Vector_9" fill="#4B612C" d="M20.5903 33.333L23.9985 34.3554L24.0965 34.2499L24.0937 26.5625L23.9956 26.4682L20.5903 26.1006V33.333Z"/><path id="Vector_10" fill="#759C3E" d="M35.4398 25.3516L23.9956 26.4677L23.9985 34.3554L35.4398 30.9111V25.3516Z"/></g></g></svg>

<svg xmlns="http://www.w3.org/2000/svg" fill="none" aria-hidden="true" viewBox="0 0 48 48"><path fill="#B7CA9D" d="m39.91 30.772-15.905-2.336-15.915 2.34 15.911 5.896 15.909-5.9Z"/><path fill="#4B612C" d="m11.275 30.5 2.688.84.245-.278V12.25l-.245-.321-2.688 1.028V30.5Z"/><path fill="#759C3E" d="m23.482 29.668-9.519 1.672V11.93l9.519 2.14v15.598Z"/><path fill="#4B612C" d="m19.238 32.958-3.71-1.144V7.855L19.238 6l.324.354v26.209l-.324.395Z"/><path fill="#759C3E" d="m31.95 29.976-12.712 2.982V6l12.713 4.955v19.02Z"/><path fill="#4B612C" d="M23.996 36.416 8.09 30.776v3.271L23.996 42v-5.584Z"/><path fill="#759C3E" d="M39.91 34.043 23.996 42v-5.584l15.914-5.644v3.271Z"/><path fill="#B7CA9D" d="M35.44 25.352h-3.856L20.59 26.1l3.41.628 11.44-1.377Z"/><path fill="#4B612C" d="M20.59 33.333 24 34.355l.098-.105-.003-7.688-.098-.094-3.406-.367v7.232Z"/><path fill="#759C3E" d="m35.44 25.352-11.444 1.116.003 7.887 11.44-3.444v-5.56Z"/></svg>
